svg/media/voice_2_fill.svg

<?xml version="1.0" encoding="UTF-8"?>
<svg width="24px" height="24px" viewBox="0 0 24 24" version="1.1" xmlns="http://www.w3.org/2000/svg" xmlns:xlink="http://www.w3.org/1999/xlink">
    <title>voice_2_fill</title>
    <g id="Icon" stroke="none" stroke-width="1" fill="none" fill-rule="evenodd">
        <g id="Media" transform="translate(-768.000000, -240.000000)">
            <g id="voice_2_fill" transform="translate(768.000000, 240.000000)">
                <path d="M24,0 L24,24 L0,24 L0,0 L24,0 Z M12.5935,23.2578 L12.5819,23.2595 L12.5109,23.295 L12.4919,23.2987 L12.4767,23.295 L12.4057,23.2595 C12.3958,23.2564 12.387,23.259 12.3821,23.2649 L12.378,23.2758 L12.3609,23.7031 L12.3659,23.7235 L12.3769,23.7357 L12.4805,23.8097 L12.4953,23.8136 L12.5071,23.8097 L12.6107,23.7357 L12.6233,23.7197 L12.6267,23.7031 L12.6096,23.2758 C12.6076,23.2657 12.601,23.2593 12.5935,23.2578 Z M12.8584,23.1453 L12.8445,23.1473 L12.6598,23.2397 L12.6499,23.2499 L12.6472,23.2611 L12.6651,23.6906 L12.6699,23.7034 L12.6784,23.7105 L12.8793,23.8032 C12.8914,23.8069 12.9022,23.803 12.9078,23.7952 L12.9118,23.7812 L12.8777,23.1665 C12.8753,23.1546 12.8674,23.147 12.8584,23.1453 Z M12.143,23.1473 C12.1332,23.1424 12.1222,23.1453 12.1156,23.1526 L12.1099,23.1665 L12.0758,23.7812 C12.0751,23.7927 12.0828,23.8019 12.0926,23.8046 L12.1083,23.8032 L12.3092,23.7105 L12.3186,23.7024 L12.3225,23.6906 L12.3404,23.2611 L12.3372,23.2485 L12.3278,23.2397 L12.143,23.1473 Z" id="MingCute" fill-rule="nonzero"></path>
                <path d="M20,3.5 C20.8284,3.5 21.5,4.17157 21.5,5 L21.5,19 C21.5,19.8284 20.8284,20.5 20,20.5 C19.1716,20.5 18.5,19.8284 18.5,19 L18.5,5 C18.5,4.17157 19.1716,3.5 20,3.5 Z M10,6.5 C10.8284,6.5 11.5,7.17157 11.5,8 L11.5,19 C11.5,19.8284 10.8284,20.5 10,20.5 C9.17157,20.5 8.5,19.8284 8.5,19 L8.5,8 C8.5,7.17157 9.17157,6.5 10,6.5 Z M15,9.5 C15.8284,9.5 16.5,10.1716 16.5,11 L16.5,19 C16.5,19.8284 15.8284,20.5 15,20.5 C14.1716,20.5 13.5,19.8284 13.5,19 L13.5,11 C13.5,10.1716 14.1716,9.5 15,9.5 Z M5,12.5 C5.82843,12.5 6.5,13.1716 6.5,14 L6.5,19 C6.5,19.8284 5.82843,20.5 5,20.5 C4.17157,20.5 3.5,19.8284 3.5,19 L3.5,14 C3.5,13.1716 4.17157,12.5 5,12.5 Z" id="形状" fill="#09244B"></path>
            </g>
        </g>
    </g>
</svg>

<svg xmlns="http://www.w3.org/2000/svg" width="24" height="24"><g fill="none" fill-rule="evenodd"><path d="M24 0v24H0V0h24ZM12.594 23.258l-.012.002-.071.035-.02.004-.014-.004-.071-.036c-.01-.003-.019 0-.024.006l-.004.01-.017.428.005.02.01.013.104.074.015.004.012-.004.104-.074.012-.016.004-.017-.017-.427c-.002-.01-.009-.017-.016-.018Zm.264-.113-.014.002-.184.093-.01.01-.003.011.018.43.005.012.008.008.201.092c.012.004.023 0 .029-.008l.004-.014-.034-.614c-.003-.012-.01-.02-.02-.022Zm-.715.002a.023.023 0 0 0-.027.006l-.006.014-.034.614c0 .012.007.02.017.024l.015-.002.201-.093.01-.008.003-.011.018-.43-.003-.012-.01-.01-.184-.092Z"/><path fill="#09244B" d="M20 3.5A1.5 1.5 0 0 1 21.5 5v14a1.5 1.5 0 0 1-3 0V5A1.5 1.5 0 0 1 20 3.5Zm-10 3A1.5 1.5 0 0 1 11.5 8v11a1.5 1.5 0 0 1-3 0V8A1.5 1.5 0 0 1 10 6.5Zm5 3a1.5 1.5 0 0 1 1.5 1.5v8a1.5 1.5 0 0 1-3 0v-8A1.5 1.5 0 0 1 15 9.5Zm-10 3A1.5 1.5 0 0 1 6.5 14v5a1.5 1.5 0 0 1-3 0v-5A1.5 1.5 0 0 1 5 12.5Z"/></g></svg>
